modules/hawcons-filled/icons/icon-25-one-finger-tap-hold.svg

<?xml version="1.0" encoding="UTF-8" standalone="no"?>
<svg width="32px" height="32px" viewBox="0 0 32 32" version="1.1" xmlns="http://www.w3.org/2000/svg" xmlns:xlink="http://www.w3.org/1999/xlink" xmlns:sketch="http://www.bohemiancoding.com/sketch/ns">
    <!-- Generator: Sketch 3.0.3 (7891) - http://www.bohemiancoding.com/sketch -->
    <title>icon 25 one finger tap hold</title>
    <desc>Created with Sketch.</desc>
    <defs></defs>
    <g id="Page-1" stroke="none" stroke-width="1" fill="none" fill-rule="evenodd" sketch:type="MSPage">
        <g id="icon-25-one-finger-tap-hold" sketch:type="MSArtboardGroup" fill="#929292">
            <path d="M22.8651466,6 L22.1151466,6 L22.1151466,2.03544442 C20.4189995,2.27805923 19.1151466,3.73676395 19.1151466,5.5 C19.1151466,7.43299672 20.6821499,9 22.6151466,9 C24.5481434,9 26.1151466,7.43299672 26.1151466,5.5 C26.1151466,3.73676395 24.8112938,2.27805923 23.1151466,2.03544442 L23.1151466,2.03544442 L23.1151466,5 L25.1151466,5 L25.1151466,6 L22.8651466,6 L22.8651466,6 Z M15.1151466,10.9494914 C15.7337402,10.3182229 16.1151466,9.4536526 16.1151466,8.5 C16.1151466,6.56700328 14.5481434,5 12.6151466,5 C10.6821499,5 9.11514664,6.56700328 9.11514664,8.5 C9.11514664,9.4536526 9.49655312,10.3182229 10.1151466,10.9494914 L10.1151466,8.50098635 C10.1151466,7.12893087 11.2344348,6 12.6151466,6 C14.0054846,6 15.1151466,7.11972973 15.1151466,8.50098635 L15.1151466,10.9494914 L15.1151466,10.9494914 Z M22.6151466,10 C25.1004281,10 27.1151466,7.9852815 27.1151466,5.5 C27.1151466,3.0147185 25.1004281,1 22.6151466,1 C20.1298651,1 18.1151466,3.0147185 18.1151466,5.5 C18.1151466,7.9852815 20.1298651,10 22.6151466,10 L22.6151466,10 Z M18.1151466,13.4908981 C18.1151466,12.6674978 17.4493494,12 16.6151466,12 C15.7867195,12 15.1151466,12.6762201 15.1151466,13.4908981 L15.1151466,15.4325233 L15.1151466,18 L14.1151466,18 L14.1151466,15.5 L14.1151466,8.50863659 C14.1151466,7.67543961 13.4493494,7 12.6151466,7 C11.7867195,7 11.1151466,7.66642015 11.1151466,8.50863659 L11.1151466,18.7983451 C9.05674703,16.5979243 6.34677642,14.1791206 5.23617935,15.2957153 C4.14900956,16.3887562 6.95050863,19.4007216 10.8625221,25.9830936 C12.6251425,28.9488875 14.8554315,30.9995418 18.6151466,31 C22.7572825,31 26.1151466,27.6421358 26.1151466,23.5 L26.1151466,20.2468012 L26.1151466,15.5063976 C26.1151466,14.6744372 25.4493494,14 24.6151466,14 C23.7867195,14 23.1151466,14.6764628 23.1151466,15.5063976 L23.1151466,17.7497253 L23.1151466,18 L22.1151466,18 L22.1151466,15.6781559 L22.1151466,14.4912653 C22.1151466,13.6676622 21.4493494,13 20.6151466,13 C19.7867195,13 19.1151466,13.6625444 19.1151466,14.4912653 L19.1151466,15.5082011 L19.1151466,17 L18.1151466,17 L18.1151466,15.5082011 L18.1151466,13.4908981 L18.1151466,13.4908981 Z" id="one-finger-tap-hold" sketch:type="MSShapeGroup"></path>
        </g>
    </g>
</svg>

<svg width="32" height="32" xmlns="http://www.w3.org/2000/svg"><path d="M22.865 6h-.75V2.035a3.5 3.5 0 1 0 1 0V5h2v1h-2.25zm-7.75 4.95a3.5 3.5 0 1 0-5 0V8.5A2.506 2.506 0 0 1 12.615 6c1.39 0 2.5 1.12 2.5 2.501v2.448zm7.5-.95a4.5 4.5 0 1 0 0-9 4.5 4.5 0 0 0 0 9zm-4.5 3.49c0-.823-.666-1.49-1.5-1.49-.828 0-1.5.676-1.5 1.49V18h-1V8.509a1.5 1.5 0 1 0-3 0v10.29c-2.058-2.201-4.768-4.62-5.879-3.503-1.087 1.093 1.715 4.105 5.627 10.687C12.625 28.95 14.855 31 18.615 31a7.5 7.5 0 0 0 7.5-7.5v-7.993a1.5 1.5 0 1 0-3 0V18h-1V14.491c0-.823-.666-1.491-1.5-1.491-.828 0-1.5.663-1.5 1.491V17h-1v-3.509z" fill="#929292" fill-rule="evenodd"/></svg>
